X:575
T: Jack Wade the Piper
S: B.Breathnach:"Ceol Rince na hEireann" IV/175 (gan ainm)
Z: B.Black
L: 1/8
M: 4/4
R: reel
K: Edor
BE (3EEE FEFA|Bdce dBAF|d2 fd ecdB|AFDF E2 FA :|
Bdce dBAF|dfed Be e2|fgfe dfaf|(3gfe dA BE E2|
BE (3EEE FEFA|Bdce dBAF|d2 fd ecdB|AFDF E2 FA ||
